; generated by Slic3r 1.2.9 on 2018-03-21 at 15:05:46

; external perimeters extrusion width = 0.50mm
; perimeters extrusion width = 0.72mm
; infill extrusion width = 0.72mm
; solid infill extrusion width = 0.72mm
; top infill extrusion width = 0.72mm

M107
M104 S200 ; set temperature
G28 ; home all axes
G1 Z5 F5000 ; lift nozzle

M109 S200 ; wait for temperature to be reached
G21 ; set units to millimeters
G90 ; use absolute coordinates
M82 ; use absolute distances for extrusion
G92 E0
G1 Z0.350 F7800.000
G1 E-2.00000 F2400.00000
G92 E0
G1 X65.727 Y64.938 F7800.000
G1 E2.00000 F2400.00000
G1 X67.709 Y63.784 E2.07096 F1800.000
G1 X68.855 Y63.475 E2.10768
G1 X92.837 Y59.267 E2.86108
G1 X94.982 Y58.947 E2.92818
G1 X97.346 Y58.726 E3.00163
G1 X99.718 Y58.644 E3.07507
G1 X100.282 Y58.644 E3.09252
G1 X102.264 Y58.703 E3.15387 F1800.000
G1 X104.629 Y58.901 E3.22731
G1 X107.163 Y59.267 E3.30651
G1 X131.145 Y63.475 E4.05991
G1 X133.302 Y64.256 E4.13087
G1 X135.062 Y65.726 E4.20184
G1 X136.216 Y67.708 E4.27280
G1 X136.526 Y68.857 E4.30961
G1 X140.585 Y92.036 E5.03772
G1 X140.983 Y94.465 E5.11386
G1 X141.251 Y97.015 E5.19321
G1 X141.280 Y97.452 E5.20674
G1 X141.362 Y100.061 E5.28751
G1 X141.280 Y102.548 E5.36452
G1 X141.037 Y105.124 E5.44456
G1 X140.597 Y107.891 E5.53126
G1 X136.526 Y131.143 E6.26165
G1 X135.745 Y133.299 E6.33261
G1 X134.276 Y135.060 E6.40357
G1 X132.294 Y136.215 E6.47454
G1 X131.145 Y136.525 E6.51135
G1 X107.162 Y140.733 E7.26475
G1 X105.018 Y141.053 E7.33185
G1 X102.654 Y141.274 E7.40529
G1 X100.282 Y141.356 E7.47874
G1 X99.718 Y141.356 E7.49618
G1 X97.736 Y141.297 E7.55753
G1 X95.371 Y141.099 E7.63098
G1 X92.838 Y140.733 E7.71017
G1 X68.855 Y136.525 E8.46358
G1 X66.698 Y135.744 E8.53454
G1 X64.938 Y134.274 E8.60550
G1 X63.784 Y132.292 E8.67646
G1 X63.475 Y131.146 E8.71318
G1 X59.249 Y107.065 E9.46967
G1 X58.957 Y105.103 E9.53102
G1 X58.736 Y102.740 E9.60447
G1 X58.700 Y102.177 E9.62191
G1 X58.641 Y99.804 E9.69536
G1 X58.700 Y97.823 E9.75671
G1 X58.736 Y97.260 E9.77415
G1 X58.911 Y95.285 E9.83550
G1 X59.249 Y92.935 E9.90895
G1 X63.475 Y68.854 E10.66544
G1 X64.257 Y66.698 E10.73640
G1 X65.679 Y64.995 E10.80504
G1 E8.80504 F2400.00000
G92 E0
G1 X109.816 Y102.471 F7800.000
G1 E2.00000 F2400.00000
G1 X116.571 Y103.885 E2.21354 F1800.000
G1 X124.905 Y98.836 E2.51505
G1 X125.287 Y98.576 E2.52935
G1 X132.399 Y94.246 E2.78696
G1 X132.691 Y96.205 E2.84826
G1 X132.851 Y98.005 E2.90416
G1 X132.912 Y100.000 E2.96593
G1 X132.851 Y101.995 E3.02769
G1 X132.691 Y103.793 E3.08355
G1 X132.398 Y105.793 E3.14608
G1 X132.011 Y107.633 E3.20425
G1 X131.473 Y109.625 E3.26810
G1 X130.871 Y111.408 E3.32634
G1 X130.067 Y113.383 E3.39232
G1 X129.223 Y115.140 E3.45263
G1 X128.274 Y116.842 E3.51292
G1 X127.125 Y118.639 E3.57892
G1 X125.973 Y120.214 E3.63929
G1 X124.701 Y121.740 E3.70076
G1 X125.794 Y121.866 E3.73479
G1 X126.550 Y122.165 E3.75995
G1 X127.256 Y122.683 E3.78705
G1 X127.787 Y123.360 E3.81366
G1 X128.111 Y124.128 E3.83946
G1 X128.235 Y124.999 E3.86669
G1 X128.113 Y125.864 E3.89369
G1 X127.795 Y126.625 E3.91922
G1 X127.274 Y127.299 E3.94557
G1 X126.579 Y127.820 E3.97246
G1 X125.814 Y128.129 E3.99800
G1 X124.969 Y128.233 E4.02432
G1 X124.109 Y128.107 E4.05122
G1 X123.350 Y127.780 E4.07679
G1 X122.683 Y127.255 E4.10306
G1 X122.165 Y126.555 E4.13001
G1 X121.863 Y125.779 E4.15577
G1 X121.736 Y124.705 E4.18923
G1 X120.214 Y125.973 E4.25051
G1 X118.639 Y127.125 E4.31088
G1 X116.842 Y128.274 E4.37688
G1 X115.140 Y129.223 E4.43717
G1 X113.383 Y130.067 E4.49748
G1 X111.408 Y130.871 E4.56346
G1 X109.625 Y131.473 E4.62171
G1 X107.633 Y132.011 E4.68555
G1 X105.794 Y132.398 E4.74368
G1 X103.934 Y132.675 E4.80187
G1 X101.879 Y132.857 E4.86572
G1 X100.000 Y132.912 E4.92388
G1 X98.121 Y132.857 E4.98203
G1 X96.066 Y132.675 E5.04588
G1 X94.206 Y132.398 E5.10407
G1 X92.367 Y132.011 E5.16219
G1 X89.984 Y131.369 E5.23856
G1 X89.941 Y129.830 E5.28619
G1 X89.941 Y115.339 E5.73457
G1 X89.882 Y113.411 E5.79426
G1 X94.052 Y108.179 E6.00126
G1 X96.272 Y109.290 E6.07807
G1 X97.818 Y109.769 E6.12815
G1 X99.424 Y109.993 E6.17832
G1 X100.970 Y109.964 E6.22618
G1 X102.566 Y109.677 E6.27633
G1 X104.090 Y109.137 E6.32637
G1 X105.572 Y108.316 E6.37879
G1 X106.786 Y107.360 E6.42661
G1 X107.884 Y106.170 E6.47669
G1 X108.809 Y104.753 E6.52906
G1 X109.785 Y102.540 E6.60390
G1 X110.183 Y103.187 F7800.000
G1 X116.701 Y104.550 E6.80993 F1800.000
G1 X116.976 Y104.365 E6.82019
G1 X125.243 Y99.362 E7.11919
G1 X125.626 Y99.101 E7.13353
G1 X131.919 Y95.267 E7.36154
G1 X132.070 Y96.279 E7.39321
G1 X132.227 Y98.042 E7.44797
G1 X132.287 Y100.000 E7.50858
G1 X132.227 Y101.958 E7.56919
G1 X132.070 Y103.720 E7.62394
G1 X131.783 Y105.683 E7.68532
G1 X131.403 Y107.487 E7.74235
G1 X130.875 Y109.443 E7.80505
G1 X130.285 Y111.190 E7.86210
G1 X129.495 Y113.130 E7.92691
G1 X128.668 Y114.853 E7.98604
G1 X127.737 Y116.521 E8.04516
G1 X126.609 Y118.286 E8.10997
G1 X125.480 Y119.829 E8.16912
G1 X124.140 Y121.438 E8.23392
G1 X122.830 Y122.830 E8.29305
G1 X121.438 Y124.140 E8.35218
G1 X119.829 Y125.480 E8.41699
G1 X118.286 Y126.609 E8.47614
G1 X116.521 Y127.737 E8.54094
G1 X114.853 Y128.668 E8.60007
G1 X113.130 Y129.495 E8.65920
G1 X111.190 Y130.285 E8.72400
G1 X109.443 Y130.875 E8.78105
G1 X107.487 Y131.403 E8.84375
G1 X105.684 Y131.783 E8.90076
G1 X103.861 Y132.055 E8.95780
G1 X101.842 Y132.233 E9.02050
G1 X100.000 Y132.287 E9.07752
G1 X98.158 Y132.233 E9.13454
G1 X96.139 Y132.055 E9.19725
G1 X94.316 Y131.783 E9.25428
G1 X92.513 Y131.403 E9.31129
G1 X90.596 Y130.887 E9.37273
G1 X90.566 Y129.821 E9.40571
G1 X90.566 Y115.330 E9.85410
G1 X90.514 Y113.621 E9.90699
G1 X94.225 Y108.964 E10.09124
G1 X96.038 Y109.871 E10.15396
G1 X97.681 Y110.381 E10.20719
G1 X99.386 Y110.619 E10.26046
G1 X101.032 Y110.588 E10.31139
G1 X102.726 Y110.283 E10.36465
G1 X104.348 Y109.709 E10.41787
G1 X105.919 Y108.838 E10.47345
G1 X107.212 Y107.820 E10.52437
G1 X108.378 Y106.555 E10.57761
G1 X109.361 Y105.052 E10.63317
G1 X110.153 Y103.255 E10.69393
G1 X110.319 Y102.706 F7800.000
G1 E8.69393 F2400.00000
G92 E0
G1 X123.697 Y122.747 F7800.000
G1 E2.00000 F2400.00000
G1 X124.314 Y122.489 E2.02069 F1800.000
G1 X124.957 Y122.399 E2.04076 F1800.000
G1 X125.641 Y122.477 E2.06207
G1 X126.246 Y122.716 E2.08219
G1 X126.817 Y123.136 E2.10413
G1 X127.243 Y123.680 E2.12552
G1 X127.504 Y124.296 E2.14622
G1 X127.603 Y125.000 E2.16821
G1 X127.506 Y125.697 E2.18999
G1 X127.250 Y126.308 E2.21048
G1 X126.832 Y126.849 E2.23165
G1 X126.269 Y127.271 E2.25340
G1 X125.655 Y127.519 E2.27389
G1 X124.977 Y127.603 E2.29505
G1 X124.281 Y127.501 E2.31680
G1 X123.673 Y127.239 E2.33730
G1 X123.136 Y126.816 E2.35845
G1 X122.717 Y126.250 E2.38022
G1 X122.474 Y125.626 E2.40094
G1 X122.398 Y124.982 E2.42101
G1 X122.494 Y124.299 E2.44234
G1 X122.756 Y123.682 E2.46308
G1 X123.166 Y123.154 E2.48378
G1 X123.638 Y122.792 E2.50217
G1 X123.718 Y122.247 F7800.000
G1 E0.50217 F2400.00000
G92 E0
G1 X128.131 Y81.771 F7800.000
G1 E2.00000 F2400.00000
G1 X127.640 Y81.006 E2.02812 F1800.000
G1 X126.465 Y79.401 E2.08966
G1 X125.926 Y78.754 E2.11573
G1 X126.855 Y78.387 E2.14663
G1 X127.695 Y77.770 E2.17888
G1 X128.148 Y77.192 E2.20158
G1 X128.400 Y77.280 E2.20985
G1 X128.400 Y81.692 E2.34638
G1 X128.203 Y81.750 E2.35275
G1 X128.400 Y72.721 F7800.000
G1 X128.146 Y72.808 E2.36104 F1800.000
G1 X127.720 Y72.256 E2.38260
G1 X127.192 Y71.855 E2.40313
G1 X127.278 Y71.600 E2.41146
G1 X128.400 Y71.600 E2.44619
G1 X128.400 Y72.646 E2.47856
G1 X122.807 Y71.852 F7800.000
G1 X122.230 Y72.306 E2.50127 F1800.000
G1 X121.613 Y73.141 E2.53339
G1 X121.249 Y74.076 E2.56445
G1 X120.599 Y73.535 E2.59063
G1 X118.994 Y72.360 E2.65217
G1 X118.229 Y71.869 E2.68028
G1 X118.308 Y71.600 E2.68897
G1 X122.720 Y71.600 E2.82548
G1 X122.783 Y71.781 E2.83142
G1 E0.83142 F2400.00000
G92 E0
G1 X132.223 Y93.339 F7800.000
G1 E2.00000 F2400.00000
G1 X130.951 Y94.158 E2.04680 F1800.000
G1 X118.151 Y101.898 E2.50964
G1 X116.448 Y103.000 E2.57239
G1 X109.979 Y101.640 E2.77692
G1 X109.974 Y99.125 E2.85473
G1 X109.694 Y97.502 E2.90571
G1 X109.104 Y95.839 E2.96030
G1 X108.275 Y94.368 E3.01254
G1 X107.265 Y93.112 E3.06241
G1 X106.005 Y91.990 E3.11461
G1 X104.506 Y91.062 E3.16917
G1 X102.942 Y90.432 E3.22133
G1 X101.291 Y90.074 E3.27361
G1 X99.682 Y89.994 E3.32345
G1 X97.061 Y90.307 E3.40511
G1 X94.631 Y83.291 E3.63485
G1 X93.733 Y81.807 E3.68851
G1 X86.861 Y69.833 E4.11570
G1 X88.592 Y69.129 E4.17352
G1 X90.375 Y68.527 E4.23175
G1 X92.367 Y67.989 E4.29560
G1 X94.206 Y67.602 E4.35373
G1 X96.066 Y67.325 E4.41192
G1 X98.121 Y67.143 E4.47577
G1 X100.000 Y67.088 E4.53392
G1 X101.879 Y67.143 E4.59208
G1 X103.934 Y67.325 E4.65593
G1 X105.794 Y67.602 E4.71412
G1 X107.633 Y67.989 E4.77225
G1 X109.625 Y68.527 E4.83609
G1 X111.408 Y69.129 E4.89433
G1 X113.211 Y69.862 E4.95456
G1 X115.140 Y70.777 E5.02060
G1 X117.001 Y71.824 E5.08667
G1 X118.640 Y72.875 E5.14693
G1 X120.214 Y74.027 E5.20727
G1 X121.739 Y75.298 E5.26870
G1 X121.862 Y74.223 E5.30218
G1 X122.165 Y73.445 E5.32800
G1 X122.683 Y72.745 E5.35495
G1 X123.352 Y72.219 E5.38127
G1 X124.131 Y71.886 E5.40749
G1 X124.948 Y71.768 E5.43304
G1 X125.812 Y71.870 E5.45994
G1 X126.601 Y72.191 E5.48629
G1 X127.276 Y72.704 E5.51255
G1 X127.795 Y73.375 E5.53880
G1 X128.113 Y74.136 E5.56433
G1 X128.235 Y75.001 E5.59133
G1 X128.111 Y75.872 E5.61856
G1 X127.787 Y76.640 E5.64436
G1 X127.256 Y77.317 E5.67097
G1 X126.550 Y77.835 E5.69807
G1 X125.797 Y78.133 E5.72314
G1 X124.706 Y78.265 E5.75714
G1 X125.973 Y79.786 E5.81840
G1 X127.125 Y81.360 E5.87874
G1 X128.176 Y82.999 E5.93900
G1 X129.222 Y84.858 E6.00499
G1 X130.067 Y86.617 E6.06536
G1 X130.871 Y88.592 E6.13134
G1 X131.473 Y90.374 E6.18954
G1 X131.967 Y92.182 E6.24755
G1 X132.207 Y93.266 E6.28188
G1 X131.519 Y93.049 F7800.000
G1 X130.621 Y93.628 E6.31494 F1800.000
G1 X117.820 Y101.369 E6.77781
G1 X116.325 Y102.335 E6.83288
G1 X110.603 Y101.133 E7.01379
G1 X110.598 Y99.071 E7.07758
G1 X110.301 Y97.343 E7.13184
G1 X109.674 Y95.579 E7.18975
G1 X108.794 Y94.017 E7.24524
G1 X107.719 Y92.680 E7.29832
G1 X106.380 Y91.488 E7.35380
G1 X104.789 Y90.502 E7.41170
G1 X103.126 Y89.833 E7.46717
G1 X101.373 Y89.452 E7.52268
G1 X99.660 Y89.368 E7.57574
G1 X97.487 Y89.627 E7.64344
G1 X95.189 Y83.007 E7.86025
G1 X94.271 Y81.490 E7.91512
G1 X87.759 Y70.142 E8.31995
G1 X88.810 Y69.715 E8.35505
G1 X90.557 Y69.125 E8.41210
G1 X92.513 Y68.597 E8.47480
G1 X94.316 Y68.217 E8.53181
G1 X96.139 Y67.945 E8.58885
G1 X98.158 Y67.767 E8.65155
G1 X100.000 Y67.713 E8.70857
G1 X101.842 Y67.767 E8.76559
G1 X103.861 Y67.945 E8.82829
G1 X105.684 Y68.217 E8.88533
G1 X107.487 Y68.597 E8.94234
G1 X109.443 Y69.125 E9.00504
G1 X111.190 Y69.715 E9.06209
G1 X112.960 Y70.434 E9.12119
G1 X114.853 Y71.332 E9.18601
G1 X116.679 Y72.359 E9.25084
G1 X118.287 Y73.391 E9.30995
G1 X119.829 Y74.520 E9.36909
G1 X121.438 Y75.860 E9.43390
G1 X122.830 Y77.170 E9.49303
G1 X124.140 Y78.562 E9.55216
G1 X125.480 Y80.171 E9.61696
G1 X126.609 Y81.713 E9.67610
G1 X127.641 Y83.321 E9.73522
G1 X128.668 Y85.147 E9.80002
G1 X129.495 Y86.870 E9.85917
G1 X130.285 Y88.810 E9.92397
G1 X130.875 Y90.556 E9.98101
G1 X131.360 Y92.332 E10.03798
G1 X131.503 Y92.976 E10.05838
G1 X131.738 Y93.499 F7800.000
G1 X125.642 Y77.522 F7800.000
G1 X124.977 Y77.603 E10.07910 F1800.000
G1 X124.295 Y77.504 E10.10043
G1 X123.697 Y77.253 E10.12050
G1 X123.165 Y76.846 E10.14122
G1 X122.745 Y76.299 E10.16254
G1 X122.494 Y75.701 E10.18262
G1 X122.398 Y75.039 E10.20330
G1 X122.474 Y74.375 E10.22401
G1 X122.717 Y73.750 E10.24475
G1 X123.136 Y73.184 E10.26652
G1 X123.673 Y72.761 E10.28768
G1 X124.301 Y72.493 E10.30880
G1 X124.956 Y72.399 E10.32930 F1800.000
G1 X125.655 Y72.481 E10.35105
G1 X126.289 Y72.738 E10.37223
G1 X126.833 Y73.152 E10.39336
G1 X127.250 Y73.692 E10.41450
G1 X127.506 Y74.303 E10.43499
G1 X127.603 Y75.000 E10.45677
G1 X127.504 Y75.704 E10.47876
G1 X127.243 Y76.320 E10.49946
G1 X126.817 Y76.864 E10.52085
G1 X126.246 Y77.284 E10.54279
G1 X125.712 Y77.495 E10.56055
G1 X125.485 Y77.997 F7800.000
G1 E8.56055 F2400.00000
G92 E0
G1 X96.266 Y90.597 F7800.000
G1 E2.00000 F2400.00000
G1 X94.069 Y91.937 E2.07962 F1800.000
G1 X92.783 Y93.064 E2.13252
G1 X91.753 Y94.326 E2.18294
G1 X90.877 Y95.883 E2.23821
G1 X90.310 Y97.493 E2.29101
G1 X90.024 Y99.179 E2.34393
G1 X90.022 Y100.808 E2.39435
G1 X90.326 Y102.569 E2.44962
G1 X90.903 Y104.175 E2.50242
G1 X91.745 Y105.661 E2.55530
G1 X93.381 Y107.665 E2.63534
G1 X89.055 Y113.074 E2.84965
G1 X89.085 Y116.022 E2.94086
G1 X89.085 Y128.147 E3.31603
G1 X89.124 Y131.089 E3.40706
G1 X86.617 Y130.067 E3.49084
G1 X84.860 Y129.223 E3.55115
G1 X83.158 Y128.274 E3.61144
G1 X81.361 Y127.125 E3.67744
G1 X79.786 Y125.973 E3.73781
G1 X78.255 Y124.697 E3.79948
G1 X78.181 Y125.551 E3.82601
G1 X78.040 Y126.081 E3.84297
G1 X77.816 Y126.583 E3.85998
G1 X77.321 Y127.251 E3.88570
G1 X76.635 Y127.787 E3.91265
G1 X75.874 Y128.113 E3.93826
G1 X75.029 Y128.234 E3.96467
G1 X74.164 Y128.122 E3.99164
G1 X73.398 Y127.808 E4.01727
G1 X72.719 Y127.292 E4.04364
G1 X72.190 Y126.598 E4.07064
G1 X71.876 Y125.831 E4.09629
G1 X71.767 Y124.987 E4.12262
G1 X71.888 Y124.121 E4.14968
G1 X72.227 Y123.338 E4.17609
G1 X72.757 Y122.672 E4.20242
G1 X73.441 Y122.168 E4.22872
G1 X74.219 Y121.863 E4.25458
G1 X75.293 Y121.738 E4.28804
G1 X74.027 Y120.213 E4.34937
G1 X72.875 Y118.639 E4.40971
G1 X71.726 Y116.842 E4.47571
G1 X70.777 Y115.140 E4.53600
G1 X69.933 Y113.383 E4.59632
G1 X69.129 Y111.408 E4.66230
G1 X68.527 Y109.626 E4.72049
G1 X68.032 Y107.814 E4.77863
G1 X67.602 Y105.796 E4.84248
G1 X67.325 Y103.934 E4.90070
G1 X67.143 Y101.879 E4.96455
G1 X67.088 Y100.000 E5.02271
G1 X67.143 Y98.121 E5.08087
G1 X67.325 Y96.066 E5.14471
G1 X67.602 Y94.204 E5.20294
G1 X68.032 Y92.186 E5.26679
G1 X68.527 Y90.374 E5.32492
G1 X69.129 Y88.592 E5.38311
G1 X69.862 Y86.789 E5.44334
G1 X70.776 Y84.862 E5.50933
G1 X71.726 Y83.158 E5.56970
G1 X72.875 Y81.361 E5.63569
G1 X74.027 Y79.786 E5.69606
G1 X75.298 Y78.261 E5.75748
G1 X74.220 Y78.138 E5.79103
G1 X73.441 Y77.832 E5.81692
G1 X72.755 Y77.327 E5.84331
G1 X72.215 Y76.641 E5.87029
G1 X71.889 Y75.879 E5.89593
G1 X71.767 Y75.037 E5.92228
G1 X71.876 Y74.169 E5.94934
G1 X72.202 Y73.381 E5.97574
G1 X72.721 Y72.706 E6.00207
G1 X73.399 Y72.191 E6.02841
G1 X74.186 Y71.871 E6.05471
G1 X75.008 Y71.768 E6.08033
G1 X75.871 Y71.886 E6.10730
G1 X76.656 Y72.223 E6.13373
G1 X77.324 Y72.752 E6.16007
G1 X77.816 Y73.417 E6.18567
G1 X78.040 Y73.919 E6.20269
G1 X78.181 Y74.449 E6.21965
G1 X78.254 Y75.300 E6.24609
G1 X79.787 Y74.027 E6.30772
G1 X81.361 Y72.875 E6.36807
G1 X83.158 Y71.726 E6.43407
G1 X84.860 Y70.777 E6.49436
G1 X86.030 Y70.215 E6.53452
G1 X86.613 Y71.106 E6.56746
G1 X93.079 Y82.371 E6.96936
G1 X93.818 Y83.573 E7.01301
G1 X93.941 Y83.866 E7.02285
G1 X96.242 Y90.527 E7.24089
G1 X95.511 Y90.326 F7800.000
G1 X93.698 Y91.432 E7.30661 F1800.000
G1 X92.332 Y92.628 E7.36279
G1 X91.234 Y93.973 E7.41649
G1 X90.305 Y95.624 E7.47511
G1 X89.702 Y97.335 E7.53126
G1 X89.399 Y99.126 E7.58744
G1 X89.397 Y100.861 E7.64114
G1 X89.719 Y102.728 E7.69977
G1 X90.333 Y104.436 E7.75591
G1 X91.228 Y106.016 E7.81208
G1 X92.578 Y107.669 E7.87813
G1 X88.421 Y112.866 E8.08404
G1 X88.446 Y113.486 E8.10324
G1 X88.460 Y116.024 E8.18175
G1 X88.460 Y128.151 E8.55700
G1 X88.487 Y130.154 E8.61898
G1 X86.870 Y129.495 E8.67300
G1 X85.147 Y128.668 E8.73213
G1 X83.479 Y127.737 E8.79125
G1 X81.714 Y126.609 E8.85606
G1 X80.171 Y125.480 E8.91521
G1 X78.562 Y124.140 E8.98002
G1 X77.169 Y122.830 E9.03917
G1 X75.741 Y121.298 E9.10397
G1 X74.520 Y119.829 E9.16308
G1 X73.391 Y118.286 E9.22222
G1 X72.263 Y116.521 E9.28703
G1 X71.332 Y114.853 E9.34616
G1 X70.505 Y113.130 E9.40529
G1 X69.715 Y111.190 E9.47009
G1 X69.125 Y109.444 E9.52712
G1 X68.640 Y107.666 E9.58414
G1 X68.217 Y105.684 E9.64684
G1 X67.945 Y103.861 E9.70388
G1 X67.767 Y101.842 E9.76659
G1 X67.713 Y100.000 E9.82361
G1 X67.767 Y98.158 E9.88063
G1 X67.945 Y96.139 E9.94333
G1 X68.217 Y94.316 E10.00038
G1 X68.640 Y92.334 E10.06308
G1 X69.125 Y90.556 E10.12009
G1 X69.715 Y88.810 E10.17713
G1 X70.434 Y87.040 E10.23623
G1 X71.332 Y85.148 E10.30103
G1 X72.263 Y83.479 E10.36018
